X: 007
T: Patty's delight
B: 204 Favourite Country Dances
N: Published by Straight & Skillern, London ca.1775
F: http://imslp.org/wiki/204_Favourite_Country_Dances_(Various) p.4 #7
Z: 2014 John Chambers <jc:trillian.mit.edu>
M: 6/8
L: 1/8
K: G
%  - - - - - - - - - - - - - - - - - - - - - - - - -
D |\
G>AG GdB | G>AG Gge | dBB cAd | BBB B2d |\
efg gfe | d>ed dBG | FGA cdB | A>BA A2 :|
|: d |\
d>ed faf | d>ed d2B | cBc afc | B>cB B2D |\
G>AG GdB | G>AG Gge | dBB cAd | BGG G2 :|
%  - - - - - - - - - - - - - - - - - - - - - - - - -
%%begintext align
%% Cast off 2 Cu. cast up again cross over 2
%% Cu. lead up to the top & cast off set corners
%% & turn lead outsides & turn
%%endtext

%%sep 1 1 500
%%sep 1 1 500
